!!!!SEGMENT:18Chuya_c.krn
!!!OTL:忠彌
!!!OPR:Eiga Banso Kyokusyu,jidai-geki,zenpen
!!!YOY:1929
!!!ONB:Kakutou,Kogai,Syousu
**kern
*clefG2
*k[]
*C:
*M2/4
=1
16aaLL
16aa
16bb
16aaJJ
16ff#XLL
16ff#
16gg
16ff#JJ
=2
16eeLL
16ee
16ff#X
16eeJJ
8ccL
8bJ
=3
8aL
8bJ
8ccL
8bJ
=4
8aL
8bJ
8fL
8eJ
=5
8ddL
8eeJ
8fL
8eJ
=6
8ddL
8eeJ
8ffL
16eeL
16eeJJ
=7
16r
16ff#XKL
8ff#J
8ff#L
8ff#J
=8
16r
16f#X
8f#
8f#L
8f#J
=9
8gL
8f#XJ
8eL
8f#J
=10
16gLL
16f#X
16e
16cJJ
8B
8r
=11
16aLL
16aJJ
16r
16b
16ccLL
16ccJJ
16r
16b
=12
16eeLL
16eeJ
16r
16bJk
16aLL
16aJ
16r
16bJk
=13
16r
16dd
16eeLL
16eeJJ
16ffnLL
16a
16b
16aJJ
=14||
*M3/8
8B
16eeLL
16cc
16b
16aJJ
=15||
*M2/4
16fLL
16f
16f
16eJJ
8eL
16cL
16BJJ
=16
16r
16cc
8b
16r
16cc
8b
=17
16bLL
16bJ
8bJ
8bL
8bJ
=18
*M3/8
8b
8b
8b
=:|!
*-
!!!ENC: Yukiko Yoden
!!!END: 2023/06/11
